Newaita/actions/24/list-add.svg

<svg height="24" viewBox="0 0 24 24" width="24" xmlns="http://www.w3.org/2000/svg"><g fill="#424242"><path d="m12.898438 21.523438v-18.855469c0-.273438-.222657-.496094-.496094-.496094h-.992188c-.273437 0-.496094.222656-.496094.496094v18.855469c0 .273437.222657.496093.496094.496093h.992188c.273437 0 .496094-.222656.496094-.496093zm0 0"/><path d="m2.480469 13.085938h18.855469c.273437 0 .496093-.222657.496093-.496094v-.992188c0-.273437-.222656-.496094-.496093-.496094h-18.855469c-.273438 0-.496094.222657-.496094.496094v.992188c0 .273437.222656.496094.496094.496094zm0 0"/></g></svg>

<svg xmlns="http://www.w3.org/2000/svg" xmlns:xlink="http://www.w3.org/1999/xlink" width="24px" height="24px" viewBox="0 0 24 24" version="1.1">
<g id="surface1">
     <defs>
  <style id="current-color-scheme" type="text/css">
   .ColorScheme-Text { color:#424242; } .ColorScheme-Highlight { color:#eeeeee; }
  </style>
 </defs>
<path style="fill:currentColor" class="ColorScheme-Text" d="M 12.898438 21.523438 L 12.898438 2.667969 C 12.898438 2.394531 12.675781 2.171875 12.402344 2.171875 L 11.410156 2.171875 C 11.136719 2.171875 10.914062 2.394531 10.914062 2.667969 L 10.914062 21.523438 C 10.914062 21.796875 11.136719 22.019531 11.410156 22.019531 L 12.402344 22.019531 C 12.675781 22.019531 12.898438 21.796875 12.898438 21.523438 Z M 12.898438 21.523438 "/>
     <defs>
  <style id="current-color-scheme" type="text/css">
   .ColorScheme-Text { color:#424242; } .ColorScheme-Highlight { color:#eeeeee; }
  </style>
 </defs>
<path style="fill:currentColor" class="ColorScheme-Text" d="M 2.480469 13.085938 L 21.335938 13.085938 C 21.609375 13.085938 21.832031 12.863281 21.832031 12.589844 L 21.832031 11.597656 C 21.832031 11.324219 21.609375 11.101562 21.335938 11.101562 L 2.480469 11.101562 C 2.207031 11.101562 1.984375 11.324219 1.984375 11.597656 L 1.984375 12.589844 C 1.984375 12.863281 2.207031 13.085938 2.480469 13.085938 Z M 2.480469 13.085938 "/>
</g>
</svg>
